Catalina-dark/actions/16/project-development-new-template.svg

<?xml version="1.0" encoding="UTF-8" standalone="no"?>
<svg
   xmlns:dc="http://purl.org/dc/elements/1.1/"
   xmlns:cc="http://creativecommons.org/ns#"
   xmlns:rdf="http://www.w3.org/1999/02/22-rdf-syntax-ns#"
   xmlns:svg="http://www.w3.org/2000/svg"
   xmlns="http://www.w3.org/2000/svg"
   xmlns:sodipodi="http://sodipodi.sourceforge.net/DTD/sodipodi-0.dtd"
   xmlns:inkscape="http://www.inkscape.org/namespaces/inkscape"
   width="16"
   height="16"
   viewBox="0 0 16 16"
   version="1.1"
   id="svg7"
   sodipodi:docname="project-development-new-template.svg"
   inkscape:version="0.92.4 5da689c313, 2019-01-14">
  <metadata
     id="metadata11">
    <rdf:RDF>
      <cc:Work
         rdf:about="">
        <dc:format>image/svg+xml</dc:format>
        <dc:type
           rdf:resource="http://purl.org/dc/dcmitype/StillImage" />
      </cc:Work>
    </rdf:RDF>
  </metadata>
  <sodipodi:namedview
     pagecolor="#ffffff"
     bordercolor="#666666"
     borderopacity="1"
     objecttolerance="10"
     gridtolerance="10"
     guidetolerance="10"
     inkscape:pageopacity="0"
     inkscape:pageshadow="2"
     inkscape:window-width="640"
     inkscape:window-height="480"
     id="namedview9"
     showgrid="false"
     inkscape:zoom="14.75"
     inkscape:cx="6.8135593"
     inkscape:cy="8"
     inkscape:window-x="0"
     inkscape:window-y="26"
     inkscape:window-maximized="0"
     inkscape:current-layer="svg7" />
  <defs
     id="defs3">
    <style
       id="current-color-scheme"
       type="text/css">
   .ColorScheme-Text { color:#5c616c; } .ColorScheme-Highlight { color:#5294e2; }
  </style>
  </defs>
  <path
     style="fill:#f1f6f8;fill-opacity:0.8509804"
     class="ColorScheme-Text"
     d="M 2 1 C 1 1 1 2 1 2 L 1 14 C 1 15 2 15 2 15 L 9 15 L 9 13 L 3 13 L 3 6 L 13 6 L 13 9 L 15 9 L 15 2 C 15 1 14 1 14 1 L 2 1 z M 12 9 L 11.425781 10.613281 L 9.8789062 9.8789062 L 10.613281 11.425781 L 9.0039062 12 L 10.617188 12.574219 L 9.8828125 14.121094 L 11.429688 13.386719 L 12 15 L 12.568359 13.386719 L 14.119141 14.121094 L 13.388672 12.574219 L 15 12 L 13.388672 11.425781 L 14.119141 9.8789062 L 12.568359 10.613281 L 12 9 z"
     id="path5" />
</svg>

<svg width="16" height="16" version="1.1" viewBox="0 0 16 16" xmlns="http://www.w3.org/2000/svg">
<defs>
<style id="current-color-scheme" type="text/css">.ColorScheme-Text { color:#5c616c; } .ColorScheme-Highlight { color:#5294e2; }</style>
</defs>
<path class="ColorScheme-Text" d="m2 1c-1 0-1 1-1 1v12c0 1 1 1 1 1h7v-2h-6v-7h10v3h2v-7c0-1-1-1-1-1h-12zm10 8-0.57422 1.6133-1.5469-0.73437 0.73437 1.5469-1.6094 0.57422 1.6133 0.57422-0.73438 1.5469 1.5469-0.73438 0.57031 1.6133 0.56836-1.6133 1.5508 0.73438-0.73047-1.5469 1.6113-0.57422-1.6113-0.57422 0.73047-1.5469-1.5508 0.73437-0.56836-1.6133z" fill="#f1f6f8" fill-opacity=".85098"/>
</svg>
